X:1
T: Ormond House
N:
C:
S:
A:
O:
R:
M:4/4
K:Em
I:speed 200
%W: A1
% voice 1 (1 lines, 33 notes)
K:Em
M:4/4
L:1/16
G4 B4 E4 e4 |^d4 f4 B4 f4 |g4 e4 b4 e4 |^d4 f4 B4 f4 |g4 e4 ^c4 A4 |F4 f4 d4 f4 |^c4 f4 B4 c4 |^A4 B2 ^c2 d4 B4 |
%W: A2
% voice 1 (1 lines, 33 notes)
G4 B4 E4 e4 |^d4 f4 B4 f4 |g4 e4 b4 e4 |^d4 f4 B4 f4 |g4 e4 ^c4 A4 |F4 f4 d4 f4 |^c4 f4 B4 c4 |^A4 B2 ^c2 d4 B4 |
%W: B1
% voice 1 (1 lines, 34 notes)
B4 d4 A4 d2 c2 |B4 d4 G4 g4 |^c4 e4 A4 a4 |^d4 f4 B4 f4 |b4 g4 e4 ^c4 |a4 f4 ^d4 f4 |B4 g4 ^c4 a4 |^d4 e2 f2 g4 e4 |
%W: B2
% voice 1 (1 lines, 34 notes)
B4 d4 A4 d2 c2 |B4 d4 G4 g4 |^c4 e4 A4 a4 |^d4 f4 B4 f4 |b4 g4 e4 ^c4 |a4 f4 ^d4 f4 |B4 g4 ^c4 a4 |^d4 e2 f2 g4 e4 ||
